packages/icons/src/emoji/svg/magnifying-glass.svg

<svg width="120" height="120" viewBox="0 0 120 120" fill="none" xmlns="http://www.w3.org/2000/svg">
<g clip-path="url(#clip0_212_612)">
<path d="M95.184 87.1218L77.3996 69.3562C90.3184 52.4718 89.109 28.2375 73.659 12.7875C56.8402 -4.02192 29.5777 -4.02192 12.7496 12.7875C-4.05977 29.6062 -4.05977 56.8781 12.7496 73.6875C28.1996 89.1281 52.4434 90.3562 69.3277 77.4281L87.1121 95.2031L95.184 87.1218Z" fill="#78A3AD"/>
<path d="M19.1623 67.2843C5.88731 54 5.88731 32.4562 19.1623 19.1812C32.4467 5.89683 53.9623 5.9062 67.2561 19.1812C80.5311 32.4562 80.5311 53.9812 67.2561 67.2843C53.9529 80.5593 32.4373 80.5593 19.1623 67.2843Z" fill="white"/>
<path d="M118.622 103.622L94.6875 79.6313C88.5938 73.5375 73.8938 88.7906 79.7157 94.6031L103.65 118.594C106.125 121.059 111.488 119.709 115.603 115.566C119.738 111.441 121.088 106.088 118.622 103.622Z" fill="#F79329"/>
<mask id="mask0_212_612" style="mask-type:luminance" maskUnits="userSpaceOnUse" x="78" y="78" width="42" height="42">
<path d="M118.622 103.622L94.6875 79.6313C88.5938 73.5375 73.8938 88.7906 79.7157 94.6031L103.65 118.594C106.125 121.059 111.488 119.709 115.603 115.566C119.738 111.441 121.088 106.088 118.622 103.622Z" fill="white"/>
</mask>
<g mask="url(#mask0_212_612)">
<path d="M104.278 117.909C104.447 115.997 105.694 113.738 106.5 112.463C108.909 108.647 111.937 105.488 116.456 104.288C121.05 103.059 121.509 106.519 120.412 110.025C119.09 114.253 116.456 117.431 112.575 119.653C111.665 120.178 110.456 120.919 109.406 121.078C106.837 121.444 104.006 121.116 104.278 117.909Z" fill="#855C52"/>
</g>
</g>
<defs>
<clipPath id="clip0_212_612">
<rect width="120" height="120" fill="white"/>
</clipPath>
</defs>
</svg>

<svg xmlns="http://www.w3.org/2000/svg" fill="none" aria-hidden="true" data-slot="icon" viewBox="0 0 120 120"><g clip-path="url(#a)"><path fill="#78A3AD" d="M95.184 87.122 77.4 69.356c12.918-16.884 11.709-41.118-3.741-56.568-16.819-16.81-44.081-16.81-60.91 0-16.809 16.818-16.809 44.09 0 60.9 15.45 15.44 39.694 16.668 56.579 3.74l17.784 17.775z"/><path fill="#fff" d="M19.162 67.284C5.887 54 5.887 32.456 19.162 19.181c13.285-13.284 34.8-13.275 48.094 0 13.275 13.275 13.275 34.8 0 48.103-13.303 13.275-34.819 13.275-48.094 0"/><path fill="#F79329" d="m118.622 103.622-23.934-23.99c-6.094-6.095-20.794 9.159-14.972 14.971l23.934 23.991c2.475 2.465 7.838 1.115 11.953-3.028 4.135-4.125 5.485-9.478 3.019-11.944"/><mask id="b" width="42" height="42" x="78" y="78" maskUnits="userSpaceOnUse" style="mask-type:luminance"><path fill="#fff" d="m118.622 103.622-23.934-23.99c-6.094-6.095-20.794 9.159-14.972 14.971l23.934 23.991c2.475 2.465 7.838 1.115 11.953-3.028 4.135-4.125 5.485-9.478 3.019-11.944"/></mask><g mask="url(#b)"><path fill="#855C52" d="M104.278 117.909c.169-1.912 1.416-4.171 2.222-5.446 2.409-3.816 5.437-6.975 9.956-8.175 4.594-1.229 5.053 2.231 3.956 5.737-1.322 4.228-3.956 7.406-7.837 9.628-.91.525-2.119 1.266-3.169 1.425-2.569.366-5.4.038-5.128-3.169"/></g></g><defs><clipPath id="a"><path fill="#fff" d="M0 0h120v120H0z"/></clipPath></defs></svg>
